X:1
T:Trust and Obey
T:Trust and Obey
T:Scott Werdebaugh, 2018
T:John Henry Sammis, 1887
T:Music © 2018 by Scott Werdebaugh and New Heart Music - May freely copy and use for Christian worship or devotions with no alterations. All other rights reserved.
T:Music © 2018 by Scott Werdebaugh and New Heart Music - May freely copy and use for Christian worship or devotions with no alterations. All other rights reserved.
C:Scott Werdebaugh, 2018
Z:Music © 2018 by Scott Werdebaugh and New Heart Music - May freely copy and use for
Z:Christian worship or devotions with no alterations. All other rights reserved.
%%score 1 ( 2 3 )
L:1/8
M:3/4
K:C
V:1 treble 
V:2 bass 
V:3 bass 
V:1
 [CE][DF] | [EG]2 [EG]2 [DF]2 | [CE]4 [EG][EG] | [FA]2 [GB]2 [FA]2 | [EG]4 [EG][EG] | %5
w: 1.~When we|walk with the|Lord in the|light of His|Word, What a|
w: 2.~Not a|sha- dow can|rise, not a|cloud in the|skies, But His|
w: 3.~Not a|bur- den we|bear, not a|sor- row we|share, But our|
w: 4.~But we|nev- er can|prove the de-|lights of His|love Un- til|
w: 5.~Then in|fel- low- ship|sweet we will|sit at His|feet. Or we’ll|
 [FA]2 [GB]2 [FA]2 | [EG]2 [DF]2 [CE]2 | [B,D]4 !breath![G,C][B,D] | [CE]2 [CE]2 [DF]2 | %9
w: glo- ry He|sheds on our|way! While we|do His good|
w: smile quick- ly|drives it a-|way; Not a|doubt or a|
w: toil He doth|rich- ly re-|pay; Not a|grief or a|
w: all on the|al- tar we|lay; For the|fa- vor He|
w: walk by His|side in the|way. What He|says we will|
 [EG]4 [CE][EG] | [Ec]2 [DB]2 [Ec]2 | [FA]4 [Fc][FA] | [EG]2 [CE]2 [DF]2 | [CE]2 [G,C]2 [B,D]2 | %14
w: will, He a-|bides with us|still, And with|all who will|trust and o-|
w: fear, not a|sigh or a|tear, Can a-|bide while we|trust and o-|
w: loss, not a|frown or a|cross, But is|blessed if we|trust and o-|
w: shows, for the|joy He be-|stows, Are for|them who will|trust and o-|
w: do, where He|sends we will|go; Ne- ver|fear, on- ly|trust and o-|
 [G,C]4 z2 ||"^Refrain" [DG]2 [B,D]2 [DF]2 | [CE]4 [EG][EG] | [CA]2 [DB]2 [CA]2 | [EG]4 [EG][EG] | %19
w: bey.|||||
w: bey.|||||
w: bey.|Trust and o-|bey, for there’s|no oth- er|way To be|
w: bey.|||||
w: bey.|||||
 [FA]2 [FB]2 [Fc]2 | [EG]2 [CE]2 [CA][CF] | [CE]2 [G,C]2 [B,D]2 | [G,C]4 |] %23
w: ||||
w: ||||
w: hap- py in|Je- sus, but to|trust and o-|bey.|
w: ||||
w: ||||
V:2
 [C,G,][G,B,] | [C,C]2 [C,C]2 [G,B,]2 | [C,G,]4 [C,C][C,C] | [F,C]2 [G,D]2 [F,C]2 | %4
 [C,C]4 [C,C][C,C] | [F,C]2 [G,D]2 [F,C]2 | [C,C]2 [G,B,]2 [C,G,]2 | [G,,G,]4 [C,E,][G,,G,] | %8
 [C,G,]2 [C,G,]2 [G,B,]2 | [C,C]4 [C,G,][C,C] | [C,G,]2 [G,,G,]2 [C,G,]2 | [F,C]4 [F,A,][F,C] | %12
 [C,C]2 [C,G,]2 [G,B,]2 | [C,G,]2 [C,E,]2 (G,F,) | [C,E,]4 z2 || [G,B,]2 [G,,G,]2 [G,B,]2 | %16
 [C,G,]4 [C,C][C,C] | [F,,F,]2 [G,,G,]2 [F,,F,]2 | [C,C]4 [C,C][C,C] | [F,C]2 [G,D]2 [F,A,]2 | %20
 [C,C]2 [C,G,]2 [F,,F,][F,A,] | [C,G,]2 [C,E,]2 (G,F,) | [C,E,]4 |] %23
V:3
 x2 | x6 | x6 | x6 | x6 | x6 | x6 | x6 | x6 | x6 | x6 | x6 | x6 | x4 G,,2 | x6 || x6 | x6 | x6 | %18
 x6 | x6 | x6 | x4 G,,2 | x4 |] %23

